icon-themes/sifr_svg/cmd/lc_zoompagewidth.svg

<svg viewBox="0 0 24 24" xmlns="http://www.w3.org/2000/svg"><path d="m5 3c-1.108 0-2 .892-2 2v14c0 1.108.892 2 2 2h14c1.108 0 2-.892 2-2v-14c0-1.108-.892-2-2-2zm5 5v3h4v-3l4 4-4 4v-3h-4v3l-4-4z" fill="#555753"/></svg>

<svg xmlns="http://www.w3.org/2000/svg" viewBox="0 0 24 24">
 <path
     style="fill:#555753"
     d="M 5 3 C 3.892 3 3 3.892 3 5 L 3 19 C 3 20.108 3.892 21 5 21 L 19 21 C 20.108 21 21 20.108 21 19 L 21 5 C 21 3.892 20.108 3 19 3 L 5 3 z M 10 8 L 10 11 L 14 11 L 14 8 L 18 12 L 14 16 L 14 13 L 10 13 L 10 16 L 6 12 L 10 8 z "
     />
 </svg>
